img/svg/logos/3.svg

<svg width="47" height="47" viewBox="0 0 47 47" fill="none" xmlns="http://www.w3.org/2000/svg">
<path d="M0.735352 0.931885H46.0607V46.2728H0.735352V0.931885Z" fill="#898989"/>
<path d="M16.0007 16.6987L15.3082 9.38014L12.8394 16.6987H10.4263L7.83162 9.3644L7.29863 16.6987H4.7239L5.87801 5.70459H9.0256L11.7734 13.2709L14.3534 5.70459H17.501L18.7265 16.6987H16.0007ZM24.2893 16.9443C21.6369 16.9443 20.0065 15.0331 20.0065 12.6411C20.0065 10.1358 21.9496 8.27391 24.4215 8.27391C26.2503 8.27391 27.2543 9.13035 27.3708 9.29618L26.3332 10.8947C25.8783 10.5899 25.3474 10.4183 24.8003 10.3993C23.515 10.3993 22.6589 11.3439 22.6589 12.5918C22.6589 13.8943 23.301 14.8169 24.6523 14.8169C25.6249 14.8169 26.4486 14.2564 26.4979 14.2239L27.503 15.8717C27.4537 15.9073 26.3332 16.9443 24.2893 16.9443ZM11.0904 43.6849V39.09H7.43607V43.6881H4.72495V32.6877H7.43607V36.8912H11.0904V32.6877H13.8026V43.6849H11.0904ZM17.4276 35.3735C17.2417 35.3721 17.0579 35.3341 16.8867 35.2617C16.7155 35.1893 16.5603 35.0838 16.4298 34.9514C16.2994 34.8189 16.1963 34.6621 16.1264 34.4898C16.0566 34.3175 16.0213 34.1331 16.0227 33.9471C16.0291 33.6724 16.1163 33.4057 16.2734 33.1803C16.4304 32.9548 16.6504 32.7807 16.9059 32.6797C17.1613 32.5786 17.4409 32.5551 17.7096 32.6121C17.9783 32.669 18.2243 32.804 18.4168 33C18.6093 33.196 18.7398 33.4444 18.7919 33.7142C18.8441 33.984 18.8156 34.2632 18.7101 34.5169C18.6046 34.7706 18.4266 34.9875 18.1985 35.1406C17.9704 35.2937 17.7023 35.3762 17.4276 35.3777V35.3735ZM16.0888 43.6849V36.6288H18.7338V43.6849H16.0888ZM21.0022 43.6849V32.6877H23.5203V43.6849H21.0022ZM25.8023 43.6849V32.6877H28.3203V43.6849H25.8023ZM9.66771 30.3671C6.31028 30.3671 3.91602 28.1903 3.91602 24.6796C3.91602 21.0208 6.43409 18.8115 9.84817 18.8115C12.3662 18.8115 13.4731 19.8505 13.7208 20.0972L12.5509 21.8447C11.8003 21.3135 10.8996 21.0362 9.98037 21.0533C8.053 21.0533 6.65232 22.3558 6.65232 24.5316C6.65232 26.9875 8.21772 28.1252 9.94785 28.1252C10.4446 28.1327 10.9397 28.0658 11.4167 27.9269V26.3452H9.4222V24.3836H13.8047V29.1633C13.6714 29.2462 12.403 30.3671 9.66771 30.3671ZM40.5005 29.8896H37.8135L36.4789 24.8517L35.2597 29.8896H32.6734L30.3337 21.7145H32.8382L34.1234 26.9886L35.4748 21.7145H37.6991L39.0505 26.9886L40.2854 21.7145H42.6912L40.5005 29.8896ZM20.8584 23.6258C20.4383 23.6163 20.0229 23.7149 19.6518 23.9121C19.2807 24.1092 18.9664 24.3984 18.7391 24.752V29.9221H16.0888V21.703H18.2753V22.7966C18.3246 22.7148 19.3245 21.4553 21.0148 21.4553C21.0148 21.4553 21.126 21.4553 21.19 21.4637C21.254 21.4721 21.3463 21.4857 21.3463 21.4857L20.8584 23.6258ZM27.076 29.9588V29.263C26.43 29.8195 25.6087 30.1305 24.7562 30.1414C23.0995 30.1414 22.0881 29.031 22.0881 27.4556C22.0881 24.8737 25.7508 24.6502 26.6133 24.6502H26.7948C26.7948 24.3846 26.863 23.8882 26.5954 23.6762C26.4496 23.5597 26.1989 23.4106 25.6176 23.4106C25.0389 23.4207 24.4659 23.5271 23.9221 23.7255C23.7689 23.7801 23.6388 23.8305 23.5402 23.8766L22.7271 22.2708C22.8627 22.1885 23.0028 22.1139 23.1467 22.0473C23.9651 21.6781 24.8543 21.4925 25.7519 21.5036C27.0109 21.5036 27.9552 21.8185 28.6015 22.465C29.315 23.1776 29.2646 24.139 29.2646 25.1508V29.9588H27.076ZM26.8273 26.1132C26.1978 26.1132 25.0374 26.0797 24.5569 26.5604C24.4649 26.651 24.3926 26.7595 24.3442 26.8791C24.2959 26.9988 24.2725 27.1272 24.2757 27.2562C24.2757 28.0518 24.8727 28.2512 25.3028 28.2512C25.8464 28.2559 26.3784 28.094 26.8273 27.7873V26.1132Z" fill="white"/>
</svg>

<svg width="47" height="47" viewBox="0 0 47 47" fill="none" xmlns="http://www.w3.org/2000/svg"><path d="M.735.932h45.326v45.34H.735V.933z" fill="#898989"/><path d="M16 16.699l-.692-7.319-2.468 7.32h-2.413L7.832 9.364 7.299 16.7H4.724L5.878 5.705h3.148l2.747 7.566 2.58-7.566h3.148l1.226 10.994H16zm8.29.245c-2.653 0-4.284-1.91-4.284-4.303 0-2.505 1.944-4.367 4.416-4.367 1.828 0 2.832.856 2.949 1.022l-1.038 1.599a2.937 2.937 0 00-1.533-.496c-1.285 0-2.141.945-2.141 2.193 0 1.302.642 2.225 1.993 2.225.973 0 1.797-.56 1.846-.593l1.005 1.648c-.05.035-1.17 1.072-3.214 1.072zm-13.2 26.74V39.09H7.436v4.598H4.725v-11h2.711v4.203h3.654v-4.203h2.713v10.997H11.09zm6.338-8.31a1.416 1.416 0 01-1.405-1.427 1.398 1.398 0 111.405 1.43v-.004zm-1.34 8.31V36.63h2.646v7.056h-2.645zm4.914 0V32.689h2.518v10.997h-2.518zm4.8 0V32.689h2.518v10.997h-2.518zM9.668 30.368c-3.358 0-5.752-2.177-5.752-5.687 0-3.66 2.518-5.869 5.932-5.869 2.518 0 3.625 1.04 3.873 1.286l-1.17 1.748a4.311 4.311 0 00-2.57-.792c-1.928 0-3.329 1.303-3.329 3.479 0 2.456 1.566 3.593 3.296 3.593.497.008.992-.06 1.469-.198v-1.582H9.422v-1.961h4.383v4.78c-.134.082-1.402 1.203-4.137 1.203zM40.5 29.89h-2.688l-1.334-5.038-1.22 5.038h-2.586l-2.34-8.175h2.505l1.285 5.274 1.352-5.274h2.224l1.352 5.274 1.234-5.274h2.406L40.5 29.89zm-19.643-6.264a2.453 2.453 0 00-2.119 1.126v5.17h-2.65v-8.219h2.186v1.094c.05-.082 1.05-1.342 2.74-1.342a1.66 1.66 0 00.331.031l-.488 2.14zm6.218 6.333v-.696a3.625 3.625 0 01-2.32.878c-1.657 0-2.668-1.11-2.668-2.685 0-2.582 3.663-2.806 4.525-2.806h.182c0-.265.068-.762-.2-.974-.145-.116-.396-.265-.977-.265a5.212 5.212 0 00-1.696.314 4.572 4.572 0 00-.382.152l-.813-1.606c.136-.082.276-.157.42-.224a6.15 6.15 0 012.605-.543c1.259 0 2.203.314 2.85.961.713.713.663 1.674.663 2.686v4.808h-2.189zm-.249-3.846c-.63 0-1.79-.033-2.27.447a.944.944 0 00-.281.696c0 .796.597.995 1.027.995a2.662 2.662 0 001.524-.464v-1.674z" fill="#fff"/></svg>
